logos/sibernetic.svg

<?xml version="1.0" encoding="UTF-8"?>
<!DOCTYPE svg PUBLIC "-//W3C//DTD SVG 1.1//EN" "http://www.w3.org/Graphics/SVG/1.1/DTD/svg11.dtd">
<svg xmlns="http://www.w3.org/2000/svg" version="1.1" width="640px" height="100px" style="shape-rendering:geometricPrecision; text-rendering:geometricPrecision; image-rendering:optimizeQuality; fill-rule:evenodd; clip-rule:evenodd" xmlns:xlink="http://www.w3.org/1999/xlink">
<g><path style="opacity:1" fill="#fefefe" d="M -0.5,-0.5 C 212.833,-0.5 426.167,-0.5 639.5,-0.5C 639.5,32.8333 639.5,66.1667 639.5,99.5C 426.167,99.5 212.833,99.5 -0.5,99.5C -0.5,66.1667 -0.5,32.8333 -0.5,-0.5 Z"/></g>
<g><path style="opacity:1" fill="#2f4e64" d="M 18.5,15.5 C 38.1667,15.5 57.8333,15.5 77.5,15.5C 77.5,21.1667 77.5,26.8333 77.5,32.5C 63.5,32.5 49.5,32.5 35.5,32.5C 35.5,36.1667 35.5,39.8333 35.5,43.5C 49.5,43.5 63.5,43.5 77.5,43.5C 77.5,58.8333 77.5,74.1667 77.5,89.5C 57.8333,89.5 38.1667,89.5 18.5,89.5C 18.5,83.8333 18.5,78.1667 18.5,72.5C 32.5,72.5 46.5,72.5 60.5,72.5C 60.5,68.5 60.5,64.5 60.5,60.5C 46.5,60.5 32.5,60.5 18.5,60.5C 18.5,45.5 18.5,30.5 18.5,15.5 Z"/></g>
<g><path style="opacity:1" fill="#304f64" d="M 87.5,15.5 C 93.1667,15.5 98.8333,15.5 104.5,15.5C 104.5,40.1667 104.5,64.8333 104.5,89.5C 98.8333,89.5 93.1667,89.5 87.5,89.5C 87.5,64.8333 87.5,40.1667 87.5,15.5 Z"/></g>
<g><path style="opacity:1" fill="#2f4e64" d="M 115.5,15.5 C 135.167,15.5 154.833,15.5 174.5,15.5C 174.666,25.8387 174.5,36.172 174,46.5C 172.315,48.0175 170.815,49.6841 169.5,51.5C 170.815,53.3159 172.315,54.9825 174,56.5C 174.5,67.495 174.667,78.495 174.5,89.5C 154.833,89.5 135.167,89.5 115.5,89.5C 115.5,64.8333 115.5,40.1667 115.5,15.5 Z"/></g>
<g><path style="opacity:1" fill="#2f4e64" d="M 184.5,15.5 C 204.167,15.5 223.833,15.5 243.5,15.5C 243.5,21.1667 243.5,26.8333 243.5,32.5C 229.5,32.5 215.5,32.5 201.5,32.5C 201.5,36.1667 201.5,39.8333 201.5,43.5C 210.833,43.5 220.167,43.5 229.5,43.5C 229.5,49.1667 229.5,54.8333 229.5,60.5C 220.167,60.5 210.833,60.5 201.5,60.5C 201.5,64.5 201.5,68.5 201.5,72.5C 215.5,72.5 229.5,72.5 243.5,72.5C 243.5,78.1667 243.5,83.8333 243.5,89.5C 223.833,89.5 204.167,89.5 184.5,89.5C 184.5,64.8333 184.5,40.1667 184.5,15.5 Z"/></g>
<g><path style="opacity:1" fill="#2f4e64" d="M 253.5,15.5 C 273.167,15.5 292.833,15.5 312.5,15.5C 312.5,30.5 312.5,45.5 312.5,60.5C 306.491,60.3338 300.491,60.5005 294.5,61C 300.333,66.8333 306.167,72.6667 312,78.5C 312.499,82.1516 312.665,85.8183 312.5,89.5C 306.824,89.6661 301.157,89.4994 295.5,89C 286.969,80.8034 278.802,72.3034 271,63.5C 270.5,72.1603 270.334,80.8269 270.5,89.5C 264.833,89.5 259.167,89.5 253.5,89.5C 253.5,64.8333 253.5,40.1667 253.5,15.5 Z"/></g>
<g><path style="opacity:1" fill="#304f64" d="M 322.5,15.5 C 328.167,15.5 333.833,15.5 339.5,15.5C 339.336,18.1873 339.503,20.854 340,23.5C 348.23,31.6415 356.23,39.9748 364,48.5C 364.5,37.505 364.667,26.505 364.5,15.5C 370.167,15.5 375.833,15.5 381.5,15.5C 381.5,40.1667 381.5,64.8333 381.5,89.5C 375.833,89.5 370.167,89.5 364.5,89.5C 364.666,84.4889 364.499,79.4889 364,74.5C 355.636,66.47 347.636,58.1367 340,49.5C 339.5,62.8292 339.333,76.1625 339.5,89.5C 333.833,89.5 328.167,89.5 322.5,89.5C 322.5,64.8333 322.5,40.1667 322.5,15.5 Z"/></g>
<g><path style="opacity:1" fill="#2f4e64" d="M 391.5,15.5 C 411.167,15.5 430.833,15.5 450.5,15.5C 450.5,21.1667 450.5,26.8333 450.5,32.5C 436.5,32.5 422.5,32.5 408.5,32.5C 408.5,36.1667 408.5,39.8333 408.5,43.5C 417.833,43.5 427.167,43.5 436.5,43.5C 436.5,49.1667 436.5,54.8333 436.5,60.5C 427.167,60.5 417.833,60.5 408.5,60.5C 408.5,64.5 408.5,68.5 408.5,72.5C 422.5,72.5 436.5,72.5 450.5,72.5C 450.5,78.1667 450.5,83.8333 450.5,89.5C 430.833,89.5 411.167,89.5 391.5,89.5C 391.5,64.8333 391.5,40.1667 391.5,15.5 Z"/></g>
<g><path style="opacity:1" fill="#2f4e64" d="M 460.5,15.5 C 480.167,15.5 499.833,15.5 519.5,15.5C 519.5,21.1667 519.5,26.8333 519.5,32.5C 512.833,32.5 506.167,32.5 499.5,32.5C 499.5,51.5 499.5,70.5 499.5,89.5C 493.833,89.5 488.167,89.5 482.5,89.5C 482.5,70.5 482.5,51.5 482.5,32.5C 475.167,32.5 467.833,32.5 460.5,32.5C 460.5,26.8333 460.5,21.1667 460.5,15.5 Z"/></g>
<g><path style="opacity:1" fill="#304f64" d="M 529.5,15.5 C 535.167,15.5 540.833,15.5 546.5,15.5C 546.5,40.1667 546.5,64.8333 546.5,89.5C 540.833,89.5 535.167,89.5 529.5,89.5C 529.5,64.8333 529.5,40.1667 529.5,15.5 Z"/></g>
<g><path style="opacity:1" fill="#2f4e64" d="M 557.5,15.5 C 577.167,15.5 596.833,15.5 616.5,15.5C 616.5,21.1667 616.5,26.8333 616.5,32.5C 602.5,32.5 588.5,32.5 574.5,32.5C 574.5,45.8333 574.5,59.1667 574.5,72.5C 588.5,72.5 602.5,72.5 616.5,72.5C 616.5,78.1667 616.5,83.8333 616.5,89.5C 596.833,89.5 577.167,89.5 557.5,89.5C 557.5,64.8333 557.5,40.1667 557.5,15.5 Z"/></g>
<g><path style="opacity:1" fill="#fefefe" d="M 132.5,32.5 C 140.833,32.5 149.167,32.5 157.5,32.5C 157.5,36.1667 157.5,39.8333 157.5,43.5C 149.167,43.5 140.833,43.5 132.5,43.5C 132.5,39.8333 132.5,36.1667 132.5,32.5 Z"/></g>
<g><path style="opacity:1" fill="#fefefe" d="M 270.5,32.5 C 278.833,32.5 287.167,32.5 295.5,32.5C 295.5,36.1667 295.5,39.8333 295.5,43.5C 287.167,43.5 278.833,43.5 270.5,43.5C 270.5,39.8333 270.5,36.1667 270.5,32.5 Z"/></g>
<g><path style="opacity:1" fill="#fefefe" d="M 132.5,60.5 C 140.833,60.5 149.167,60.5 157.5,60.5C 157.5,64.5 157.5,68.5 157.5,72.5C 149.167,72.5 140.833,72.5 132.5,72.5C 132.5,68.5 132.5,64.5 132.5,60.5 Z"/></g>
</svg>

<svg xmlns="http://www.w3.org/2000/svg" width="640" height="100" style="shape-rendering:geometricPrecision;text-rendering:geometricPrecision;image-rendering:optimizeQuality;fill-rule:evenodd;clip-rule:evenodd"><path style="opacity:1" fill="#fefefe" d="M-.5-.5h640v100H-.5V-.5z"/><path style="opacity:1" fill="#2f4e64" d="M18.5 15.5h59v17h-42v11h42v46h-59v-17h42v-12h-42v-45z"/><path style="opacity:1" fill="#304f64" d="M87.5 15.5h17v74h-17v-74z"/><path style="opacity:1" fill="#2f4e64" d="M115.5 15.5h59c.166 10.339 0 20.672-.5 31a31.867 31.867 0 0 0-4.5 5 31.867 31.867 0 0 0 4.5 5c.5 10.995.667 21.995.5 33h-59v-74zM184.5 15.5h59v17h-42v11h28v17h-28v12h42v17h-59v-74zM253.5 15.5h59v45c-6.009-.166-12.009 0-18 .5L312 78.5a60.93 60.93 0 0 1 .5 11c-5.676.166-11.343 0-17-.5A440.76 440.76 0 0 1 271 63.5c-.5 8.66-.666 17.327-.5 26h-17v-74z"/><path style="opacity:1" fill="#304f64" d="M322.5 15.5h17a32.462 32.462 0 0 0 .5 8 670.055 670.055 0 0 1 24 25c.5-10.995.667-21.995.5-33h17v74h-17a112.97 112.97 0 0 0-.5-15 423.662 423.662 0 0 1-24-25c-.5 13.33-.667 26.662-.5 40h-17v-74z"/><path style="opacity:1" fill="#2f4e64" d="M391.5 15.5h59v17h-42v11h28v17h-28v12h42v17h-59v-74zM460.5 15.5h59v17h-20v57h-17v-57h-22v-17z"/><path style="opacity:1" fill="#304f64" d="M529.5 15.5h17v74h-17v-74z"/><path style="opacity:1" fill="#2f4e64" d="M557.5 15.5h59v17h-42v40h42v17h-59v-74z"/><path style="opacity:1" fill="#fefefe" d="M132.5 32.5h25v11h-25v-11zM270.5 32.5h25v11h-25v-11zM132.5 60.5h25v12h-25v-12z"/></svg>
